wp-content/plugins/LayerSlider/assets/static/admin/svgs/solid/gallery-thumbnails.svg

<svg viewBox="0 0 576 512" xmlns="http://www.w3.org/2000/svg"><path d="m512 0c35.3 0 64 28.65 64 64v224c0 35.3-28.7 64-64 64h-448c-35.35 0-64-28.7-64-64v-224c0-35.35 28.65-64 64-64zm0 64h-448v224h448zm-512 384c0-17.7 14.33-32 32-32h32c17.67 0 32 14.3 32 32v32c0 17.7-14.33 32-32 32h-32c-17.67 0-32-14.3-32-32zm224-32c17.7 0 32 14.3 32 32v32c0 17.7-14.3 32-32 32h-32c-17.7 0-32-14.3-32-32v-32c0-17.7 14.3-32 32-32zm96 32c0-17.7 14.3-32 32-32h32c17.7 0 32 14.3 32 32v32c0 17.7-14.3 32-32 32h-32c-17.7 0-32-14.3-32-32zm224-32c17.7 0 32 14.3 32 32v32c0 17.7-14.3 32-32 32h-32c-17.7 0-32-14.3-32-32v-32c0-17.7 14.3-32 32-32z"/></svg>

<svg xmlns="http://www.w3.org/2000/svg" viewBox="0 0 576 512"><!--! Font Awesome Pro 6.1.1 by @fontawesome - https://fontawesome.com License - https://fontawesome.com/license (Commercial License) Copyright 2022 Fonticons, Inc. --><path d="M512 0C547.3 0 576 28.65 576 64V288C576 323.3 547.3 352 512 352H64C28.65 352 0 323.3 0 288V64C0 28.65 28.65 0 64 0H512zM512 64H64V288H512V64zM0 448C0 430.3 14.33 416 32 416H64C81.67 416 96 430.3 96 448V480C96 497.7 81.67 512 64 512H32C14.33 512 0 497.7 0 480V448zM224 416C241.7 416 256 430.3 256 448V480C256 497.7 241.7 512 224 512H192C174.3 512 160 497.7 160 480V448C160 430.3 174.3 416 192 416H224zM320 448C320 430.3 334.3 416 352 416H384C401.7 416 416 430.3 416 448V480C416 497.7 401.7 512 384 512H352C334.3 512 320 497.7 320 480V448zM544 416C561.7 416 576 430.3 576 448V480C576 497.7 561.7 512 544 512H512C494.3 512 480 497.7 480 480V448C480 430.3 494.3 416 512 416H544z"/></svg>
